X: 1
T: Duntroon Castle
R: reel
Z: 2006 John Chambers <jc:trillian.mit.edu>
S: printed MS of unknown origin
M: C|
L: 1/8
K: Amix
f \
[| "A"e2ce "D"f2df | "A"e2ce ~A2c2 | "A"e2ce "D"f2df | "G"d2Bd  ~G2B2 ||
|| "A"e2ce "D"f2df | "A"fece ~A2c2 | "D"defd "A"cdec | "G"B=cdB ~G2B2 |]
[| "A"eAcA ABcd | "A"efec ~A2c2 | "A"eAec ABcA | "G"B=cdB ~G2B2 ||
|| "A"eAcA ABcd | "A"eaec ~A2c2 | "D"defd "A"cdec | "G"B=cdB ~G2B2 |]
